ui_kit/lib/assets/icons/speaker_state_on.svg

<svg width="24" height="24" viewBox="0 0 24 24" fill="none" xmlns="http://www.w3.org/2000/svg">
<path fill-rule="evenodd" clip-rule="evenodd" d="M19.0719 5.26639C18.7169 4.91128 18.1412 4.91119 17.7861 5.26619C17.431 5.6212 17.4309 6.19686 17.7859 6.55197C19.3199 8.08643 20.1817 10.1673 20.1817 12.3371C20.1817 14.5068 19.3199 16.5877 17.7859 18.1222C17.4309 18.4773 17.431 19.0529 17.7861 19.4079C18.1412 19.7629 18.7169 19.7628 19.0719 19.4077C20.9468 17.5323 22 14.989 22 12.3371C22 9.68517 20.9468 7.14184 19.0719 5.26639ZM15.8625 8.47579C15.5075 8.12068 14.9318 8.12059 14.5767 8.47559C14.2216 8.83059 14.2215 9.40625 14.5765 9.76136C15.2583 10.4433 15.6413 11.3682 15.6413 12.3325C15.6413 13.2968 15.2583 14.2217 14.5765 14.9037C14.2215 15.2588 14.2216 15.8344 14.5767 16.1894C14.9318 16.5444 15.5075 16.5444 15.8625 16.1892C16.8852 15.1663 17.4597 13.779 17.4597 12.3325C17.4597 10.886 16.8852 9.49876 15.8625 8.47579ZM12.001 5.97278C12.001 5.62329 11.8006 5.30473 11.4856 5.15333C11.1706 5.00194 10.7967 5.0445 10.5238 5.26283L6.22697 8.70031H2.90918C2.40705 8.70031 2 9.10737 2 9.60949V15.0646C2 15.5667 2.40705 15.9737 2.90918 15.9737H6.22697L10.5238 19.4112C10.7967 19.6295 11.1706 19.6721 11.4856 19.5207C11.8006 19.3693 12.001 19.0508 12.001 18.7013V5.97278ZM7.11385 10.3194L10.1826 7.86444V16.8096L7.11385 14.3546C6.95264 14.2256 6.75234 14.1554 6.54589 14.1554H3.81836V10.5187H6.54589C6.75234 10.5187 6.95264 10.4484 7.11385 10.3194Z" fill="white"/>
</svg>

<svg xmlns="http://www.w3.org/2000/svg" width="24" height="24" fill="none" viewBox="0 0 24 24"><path fill="#fff" fill-rule="evenodd" d="M19.072 5.266a.91.91 0 0 0-1.286 1.286 8.183 8.183 0 0 1 0 11.57.91.91 0 1 0 1.286 1.286 10 10 0 0 0 0-14.142Zm-3.21 3.21a.91.91 0 0 0-1.286 1.285 3.637 3.637 0 0 1 0 5.143.91.91 0 1 0 1.287 1.285 5.455 5.455 0 0 0 0-7.713Zm-3.861-2.503a.91.91 0 0 0-1.477-.71L6.227 8.7H2.909A.91.91 0 0 0 2 9.61v5.455a.91.91 0 0 0 .91.909h3.317l4.297 3.437a.91.91 0 0 0 1.477-.71V5.973Zm-4.887 4.346 3.069-2.455v8.946l-3.07-2.455a.909.909 0 0 0-.567-.2H3.818V10.52h2.728a.91.91 0 0 0 .568-.2Z" clip-rule="evenodd"/></svg>
